**harm	**harte	**timestamp	**phrase	**leadinstrument	**kern
*M4/4	*M4/4	*	*	*	*
*G:	*G:	*	*	*	*G:
1r;	N	0	.	r	1r;
=1	=1	=1	=1	=1	=1
*>A_intro	*>A_intro	*>A_intro	*>A_intro	*>A_intro	*>A_intro
2I	G:maj	0.352	newline	guitar	2G 2b 2dd
2I	G:sus4	2.321	.	guitar	2G 2b 2dd
=2	=2	=2	=2	=2	=2
2I	G:maj	4.291	.	guitar	2G 2b 2dd
2I	G:sus4	6.26	.	guitar	2G 2b 2dd
=3	=3	=3	=3	=3	=3
*>A_verse	*>A_verse	*>A_verse	*>A_verse	*>A_verse	*>A_verse
2I	G:maj	8.23	newline	voice	2G 2b 2dd
2I	G:sus4	10.147	.	voice	2G 2b 2dd
=4	=4	=4	=4	=4	=4
2I	G:maj	12.064	.	voice	2G 2b 2dd
2vi7	E:min7	13.981	.	voice	2E 2g 2b 2dd
=5	=5	=5	=5	=5	=5
1iii7	B:min7	15.898	.	voice	1B 1dd 1ff# 1aa
=6	=6	=6	=6	=6	=6
2IV	C:maj	19.732	.	voice	2C 2e 2g
2Ib	G:maj/3	21.649	.	voice	2g 2B 2dd
=7	=7	=7	=7	=7	=7
2ii7	A:min7	23.566	.	voice	2A 2cc 2ee 2gg
2I	G:maj	25.483	.	voice	2G 2b 2dd
=8	=8	=8	=8	=8	=8
1V	D:maj	27.4	.	voice	1D 1f# 1a
=9	=9	=9	=9	=9	=9
1V	D:maj	31.234	.	voice	1D 1f# 1a
=10	=10	=10	=10	=10	=10
2I	G:maj	35.068	newline	voice	2G 2b 2dd
2I	G:sus4	36.974	.	voice	2G 2b 2dd
=11	=11	=11	=11	=11	=11
2I	G:maj	38.88	.	voice	2G 2b 2dd
2vi7	E:min7	40.786	.	voice	2E 2g 2b 2dd
=12	=12	=12	=12	=12	=12
1iii7	B:min7	42.692	.	voice	1B 1dd 1ff# 1aa
=13	=13	=13	=13	=13	=13
2IV	C:maj	46.504	.	voice	2C 2e 2g
2Ib	G:maj/3	48.41	.	voice	2g 2B 2dd
=14	=14	=14	=14	=14	=14
2ii7	A:min7	50.316	.	voice	2A 2cc 2ee 2gg
2I	G:maj	52.222	.	voice	2G 2b 2dd
=15	=15	=15	=15	=15	=15
1V	D:maj	54.128	.	voice	1D 1f# 1a
=16	=16	=16	=16	=16	=16
1V	D:maj	57.94	.	voice	1D 1f# 1a
=17	=17	=17	=17	=17	=17
*>B_chorus	*>B_chorus	*>B_chorus	*>B_chorus	*>B_chorus	*>B_chorus
2vi	E:min	61.752	newline	voice	2E 2g 2b
2ii	A:min	63.624	.	voice	2A 2cc 2ee
=18	=18	=18	=18	=18	=18
1V	D:maj	65.497	.	voice	1D 1f# 1a
=19	=19	=19	=19	=19	=19
2vi	E:min	69.242	.	voice	2E 2g 2b
2ii	A:min	71.114	.	voice	2A 2cc 2ee
=20	=20	=20	=20	=20	=20
1V	D:maj	72.987	.	voice	1D 1f# 1a
=21	=21	=21	=21	=21	=21
2vi	E:min	76.732	newline	voice	2E 2g 2b
2ii	A:min	78.593	.	voice	2A 2cc 2ee
=22	=22	=22	=22	=22	=22
1V	D:maj	80.455	.	voice	1D 1f# 1a
=23	=23	=23	=23	=23	=23
1IV	C:sus2(#11)	84.179	.	voice	1C 1e 1g
=24	=24	=24	=24	=24	=24
1r	N	87.902	.	voice	1r
=25	=25	=25	=25	=25	=25
*>A_verse	*>A_verse	*>A_verse	*>A_verse	*>A_verse	*>A_verse
2I	G:maj	91.626	newline	voice	2G 2b 2dd
2I	G:sus4	93.545	.	voice	2G 2b 2dd
=26	=26	=26	=26	=26	=26
2I	G:maj	95.463	.	voice	2G 2b 2dd
2vi7	E:min7	97.382	.	voice	2E 2g 2b 2dd
=27	=27	=27	=27	=27	=27
1iii7	B:min7	99.301	.	voice	1B 1dd 1ff# 1aa
=28	=28	=28	=28	=28	=28
2IV	C:maj	103.139	.	voice	2C 2e 2g
2Ib	G:maj/3	105.057	.	voice	2g 2B 2dd
=29	=29	=29	=29	=29	=29
2ii7	A:min7	106.976	.	voice	2A 2cc 2ee 2gg
2I	G:maj	108.895	.	voice	2G 2b 2dd
=30	=30	=30	=30	=30	=30
1V	D:maj	110.814	.	voice	1D 1f# 1a
=31	=31	=31	=31	=31	=31
2I	G:maj	114.651	newline	voice	2G 2b 2dd
2I	G:sus4	116.56	.	voice	2G 2b 2dd
=32	=32	=32	=32	=32	=32
2I	G:maj	118.469	.	voice	2G 2b 2dd
2vi7	E:min7	120.377	.	voice	2E 2g 2b 2dd
=33	=33	=33	=33	=33	=33
1iii7	B:min7	122.286	.	voice	1B 1dd 1ff# 1aa
=34	=34	=34	=34	=34	=34
2IV	C:maj	126.104	.	voice	2C 2e 2g
2Ib	G:maj/3	128.012	.	voice	2g 2B 2dd
=35	=35	=35	=35	=35	=35
2ii7	A:min7	129.921	.	voice	2A 2cc 2ee 2gg
2I	G:maj	131.83	.	voice	2G 2b 2dd
=36	=36	=36	=36	=36	=36
1V	D:maj	133.739	.	voice	1D 1f# 1a
=37	=37	=37	=37	=37	=37
1V	D:maj	137.556	.	voice	1D 1f# 1a
=38	=38	=38	=38	=38	=38
*>B_solo	*>B_solo	*>B_solo	*>B_solo	*>B_solo	*>B_solo
2vi	E:min	141.374	newline	guitar	2E 2g 2b
2ii	A:min	143.253	.	guitar	2A 2cc 2ee
=39	=39	=39	=39	=39	=39
1V	D:maj	145.131	.	guitar	1D 1f# 1a
=40	=40	=40	=40	=40	=40
2vi	E:min	148.889	.	guitar	2E 2g 2b
2ii	A:min	150.768	.	guitar	2A 2cc 2ee
=41	=41	=41	=41	=41	=41
1V	D:maj	152.647	.	guitar	1D 1f# 1a
=42	=42	=42	=42	=42	=42
*>B_chorus	*>B_chorus	*>B_chorus	*>B_chorus	*>B_chorus	*>B_chorus
2vi	E:min	156.404	newline	voice	2E 2g 2b
2ii	A:min	158.348	.	voice	2A 2cc 2ee
=43	=43	=43	=43	=43	=43
1V	D:maj	160.291	.	voice	1D 1f# 1a
=44	=44	=44	=44	=44	=44
2vi	E:min	164.178	.	voice	2E 2g 2b
2ii	A:min	166.121	.	voice	2A 2cc 2ee
=45	=45	=45	=45	=45	=45
1V	D:maj	168.064	.	voice	1D 1f# 1a
=46	=46	=46	=46	=46	=46
2vi	E:min	171.951	newline	voice	2E 2g 2b
2ii	A:min	173.87	.	voice	2A 2cc 2ee
=47	=47	=47	=47	=47	=47
1V	D:maj	175.79	.	voice	1D 1f# 1a
=48	=48	=48	=48	=48	=48
*>C_bridge	*>C_bridge	*>C_bridge	*>C_bridge	*>C_bridge	*>C_bridge
1VI	E:maj	179.629	newline	guitar	1E 1g# 1b
=49	=49	=49	=49	=49	=49
1V	D:maj6(9)	183.434	.	guitar	1D 1f# 1a
=50	=50	=50	=50	=50	=50
1VI	E:maj	187.239	.	guitar	1E 1g# 1b
=51	=51	=51	=51	=51	=51
1V	D:maj6(9)	191.044	.	guitar	1D 1f# 1a
=52	=52	=52	=52	=52	=52
1VI	E:maj	194.849	newline	voice	1E 1g# 1b
=53	=53	=53	=53	=53	=53
1V	D:maj6(9)	198.698	.	voice	1D 1f# 1a
=54	=54	=54	=54	=54	=54
1VI	E:maj	202.547	.	voice	1E 1g# 1b
=55	=55	=55	=55	=55	=55
1V	D:maj6(9)	206.396	.	voice	1D 1f# 1a
=56	=56	=56	=56	=56	=56
2IV	C:maj	210.245	newline	voice	2C 2e 2g
2V	D:maj	212.137	.	voice	2D 2f# 2a
=57	=57	=57	=57	=57	=57
4I	G:maj	214.03	.	voice	4G 4b 4dd
4Vb	D:maj/3	214.976	.	voice	4d 4F# 4a
4vi	E:min	215.923	.	voice	4E 4g 4b
4V	D:maj	216.869	.	voice	4D 4f# 4a
=58	=58	=58	=58	=58	=58
4IV	C:maj	217.815	.	voice	4C 4e 4g
4iii	B:min	218.762	.	voice	4B 4dd 4ff#
4ii	A:min	219.708	.	voice	4A 4cc 4ee
4I	G:maj	220.654	.	voice	4G 4b 4dd
=59	=59	=59	=59	=59	=59
2V	D:maj	221.601	.	voice	2D 2f# 2a
2Vd	D:sus4/b7	223.493	.	voice	2d 2f# 2a
=60	=60	=60	=60	=60	=60
2iii	B:min	225.386	.	voice	2B 2dd 2ff#
2Vc	D:maj/5	227.279	.	voice	2d 2f# 2A
=61	=61	=61	=61	=61	=61
*>A_verse	*>A_verse	*>A_verse	*>A_verse	*>A_verse	*>A_verse
2I	G:maj	229.171	newline	voice	2G 2b 2dd
2I	G:sus4	231.063	.	voice	2G 2b 2dd
=62	=62	=62	=62	=62	=62
2I	G:maj	232.955	.	voice	2G 2b 2dd
2vi7	E:min7	234.846	.	voice	2E 2g 2b 2dd
=63	=63	=63	=63	=63	=63
1iii7	B:min7	236.738	.	voice	1B 1dd 1ff# 1aa
=64	=64	=64	=64	=64	=64
2ii	A:min	240.521	.	voice	2A 2cc 2ee
2ii7d	A:min7/b7	242.413	.	voice	2a 2cc 2ee 2G
=65	=65	=65	=65	=65	=65
1V	D:maj	244.305	.	voice	1D 1f# 1a
1r;	N	254.709	.	r	1r;
1r;	N	255.974	.	r	1r;
*-	*-	*-	*-	*-	*-
!!!OTL: Amanda
!!!COC: Boston
!!!BillboardChartDate: 1986/12/13
!!!BillboardPeak: 1
!!!BillboardWeeksOnChart: 18
!!!SampleTargetRank: 24
!!!SampleActualRank: 24
!!!SampleID#: 1234
!!!RDF**harmony: **recip + pitch class of root + harmonic quality
!!!RDF**harte: Chris Harte's syntax, used by MIREX
!!!RDF**phrase: newline = linebreak in original McGill transcription
!!!RDF**timestamp: McGill audio timestamp in seconds
!!!RDF**leadinstrument: original McGill primary instrumentation annotation
!!!RDT: 2017/01/12/
!!!ENC: Nathaniel Condit-Schultz
!!!EST: Awating manual error checking and editing.
